svgs/light/square-star.svg

<svg xmlns="http://www.w3.org/2000/svg" viewBox="0 0 448 512"><!--! Font Awesome Pro 6.4.0 by @fontawesome - https://fontawesome.com License - https://fontawesome.com/license (Commercial License) Copyright 2023 Fonticons, Inc. --><path d="M64 64C46.3 64 32 78.3 32 96V416c0 17.7 14.3 32 32 32H384c17.7 0 32-14.3 32-32V96c0-17.7-14.3-32-32-32H64zM0 96C0 60.7 28.7 32 64 32H384c35.3 0 64 28.7 64 64V416c0 35.3-28.7 64-64 64H64c-35.3 0-64-28.7-64-64V96zm238.3 16.9l36.2 73.4 81.1 11.8c6 .9 11 5.1 12.9 10.9s.3 12.2-4 16.4l-58.6 57.2 13.8 80.7c1 6-1.4 12.1-6.4 15.6s-11.5 4.1-16.8 1.2L224 342.1l-72.5 38.1c-5.4 2.8-11.9 2.4-16.8-1.2s-7.4-9.6-6.4-15.6l13.8-80.7L83.5 225.4c-4.4-4.3-5.9-10.6-4-16.4s6.9-10 12.9-10.9l81-11.8 36.2-73.4c2.7-5.5 8.3-8.9 14.3-8.9s11.7 3.5 14.3 8.9zm-40 95.1c-2.3 4.7-6.8 8-12 8.8L129 225.1l41.5 40.4c3.8 3.7 5.5 9 4.6 14.2l-9.8 57.1 51.2-26.9c4.7-2.5 10.2-2.5 14.9 0l51.2 26.9-9.8-57.1c-.9-5.2 .8-10.5 4.6-14.2L319 225.1l-57.3-8.3c-5.2-.8-9.7-4-12-8.8L224 156.2l-25.6 51.9z"/></svg>

<svg xmlns="http://www.w3.org/2000/svg" viewBox="0 0 448 512"><!--! Font Awesome Pro 6.3.0 by @fontawesome - https://fontawesome.com License - https://fontawesome.com/license (Commercial License) Copyright 2023 Fonticons, Inc. --><path d="M274.6 186.4L355.6 198.1C361.7 199 366.7 203.2 368.6 209C370.4 214.8 368.9 221.2 364.5 225.4L305.9 282.6L319.7 363.3C320.7 369.3 318.3 375.4 313.3 378.1C308.4 382.6 301.9 383 296.5 380.2L224 342.1L151.5 380.2C146.1 383 139.6 382.6 134.7 378.1C129.7 375.4 127.3 369.3 128.3 363.3L142.1 282.6L83.49 225.4C79.13 221.2 77.56 214.8 79.44 209C81.32 203.2 86.33 199 92.36 198.1L173.4 186.4L209.7 112.9C212.3 107.5 217.9 104 224 104C230.1 104 235.7 107.5 238.3 112.9L274.6 186.4zM186.3 216.8L129 225.1L170.5 265.6C174.3 269.2 175.1 274.5 175.1 279.7L165.3 336.8L216.6 309.8C221.2 307.4 226.8 307.4 231.4 309.8L282.7 336.8L272.9 279.7C272 274.5 273.7 269.2 277.5 265.6L318.1 225.1L261.7 216.8C256.5 216.1 251.1 212.8 249.6 208.1L223.1 156.2L198.4 208.1C196 212.8 191.5 216.1 186.3 216.8H186.3zM0 96C0 60.65 28.65 32 64 32H384C419.3 32 448 60.65 448 96V416C448 451.3 419.3 480 384 480H64C28.65 480 0 451.3 0 416V96zM32 96V416C32 433.7 46.33 448 64 448H384C401.7 448 416 433.7 416 416V96C416 78.33 401.7 64 384 64H64C46.33 64 32 78.33 32 96z"/></svg>
